**kern
*clefG2
*k[]
*M5/4
=1-
4g
4f
4g
4g
8g
16f
16f
=2
8g
16g
2f
2g
16g- 16e
=3
16a
16g
2r
4g
16f
(8f
8f)
16g 16e 16c#
=4
2g 2e
8g
2a
16g
(16g
=5
16g)
8g
16g
16f
4g#
(16f
2g#
8a)
=6
8g
(1a
16b#)
16cc
=7
16cc
1dd
16dd
16dd
(16ee
=8
8.ff
16ee)
2.r
8ee
16ee
16r
=9
8ee
16dd
16cc
8dd
2ee
(4ee
16ff)
16gg
=10
8aa
1aa
8gg
=11
*-